!! Generated by translation program from file data/01
!! 
!! 
!! 
!! 09/24/93 E. Correia
!! WK#:67        MV#:3
!! Breitkopf & H\3artel, Series 1 No.5, Leipzig
!! Symphony No. 5 in C Minor
!! 
!! Flauto 1
!! 0 0 .
!! Group memberships: sound
!! sound: part 1 of 18 
**kern
*Flauto 1
*k[b-e-a-]
*M3/4
*clefG2
*>A
4r
=1
2.r
=2
2.r
=3
2.r
=4
2.r
=5
2.r
=6
2r
4r
=7
2r
4r
=8
4r
4r
4r
=9
2.r
=10
2.r
=11
2.r
=12
2.r
=13
2.r
=14
2.r
=15
(2gg\
4bb\
=16
2ccc\
4ddd\)
=17
(2fff'\
4eee-'\)
=18
2.ddd;\
=19
2.r
=20
2.r
=21
2.r
=22
2.r
=23
2.r
=24
2.r
=25
2.r
=26
2.r
=27
4bb-\
4bb-\
4bb-\
=28
2.bb-\
=29
4bb-\
4bb-\
4bb-\
=30
2.bb-\
=31
4bb-\
4bb-\
4bb-\
=32
2.bb-\
=33
(4ddd-\
4ccc-\)
4bb-'\
=34
2.aa-\
=35
2.bb-\
=36
2.gg-\
=37
(4bb-\
4aa-\)
4gg-'\
=38
[2.ffz\
=39
(2ff\
4gg-\)
=40
2.ff_z\
=41
(2ff\
4gg-\)
=42
(2ffz\
4gg-\)
=43
(2ffz\
4gg-\)
=44
2.ff_\
=45
4ff\
4r
4r
=46
2.r
=47
2.r
=48
2.r
=49
2.r
=50
2r
4r
=51
(2eee-'\
4ddd-'\)
=52
2ccc;\
4r
=53
2.r
=54
2.r
=55
2.r
=56
2.r
=57
2.r
=58
2.r
=59
2.r
=60
2.r
=61
2.r
=62
2.r
=63
2.r
=64
2.r
=65
2.r
=66
2.r
=67
2.r
=68
2.r
=69
2.r
=70
2.r
=71
2.ddd\
=72
2.eee-\
=73
2.ddd\
=74
2.ccc\
=75
2.ddd\
=76
2.eee-\
=77
2.fff\
=78
4bb-\
4r
4r
=79
4ccc\
4ccc\
4ccc\
=80
2.ccc\
=81
4ccc\
4ccc\
4ccc\
=82
2.ccc\
=83
4ccc\
4ccc\
4ccc\
=84
2.ccc\
=85
(4eee-\
4ddd-\)
4ccc'\
=86
2.bb-\
=87
2.ccc\
=88
2.aa-\
=89
(4ccc\
4bb-\)
4aa-'\
=90
2.gg_z\
=91
(2gg\
4aa-\)
=92
2.gg_z\
=93
(2gg\
4aa-\)
=94
(2ggz\
4aa-\)
=95
(2ggz\
4aa-\)
=96
2.gg_\
=97
4gg\
4r
4r
=98
2.r
=99
2.r
=100
2.r
=101
(2gg\
4bb\
=102
2ccc\
4ddd\
=103
2fff\
4eee-\
=104
4ddd\)
4r
4r
=105
(2gg\
4bb\
=106
2ccc\
4eee-\
=107
2ggg\
4fff\
=108
4eee-\)
4r
4r
=109
2.r
=110
2.r
=111
4aaa-\
4aaa-\
4aaa-\
=112
4aaa-\
4r
4r
=113
4aaa-\
4aaa-\
4aaa-\
=114
4aaa-\
4r
4fff\
=115
4r
4r
4fff\]
=116
4r
4r
4fff\
=117
4r
4r
4fff\
=118
4r
4r
4fff\
=119
4r
4r
4fff\
=120
4r
4r
4fff\
=121
4r
4r
4fff\
=122
4r
4r
4fff\
=123
4r
4r
4fff\
=124
4r
4r
4eee-\
=125
4r
4r
4fff\
=126
4r
4r
4ddd\
=127
4r
4r
4eee-\
=128
4r
4r
4eee-\
=129
4r
4r
4eee-\
=130
4r
4r
4eee-\
=131
4eee-\
4eee-\
4ddd\
=132
4ccc\
4r
4r
=133
4ggg\
4ggg\
4ggg\
=134
2.ggg\
=135
4ggg\
4ggg\
4ggg\
=136
2.ggg\
=137
4bb-\
4bb-\
4bb-\
=138
4aa-'\
4r
4r
=139
4dd'\
4r
4r
=140
4cc'\
4r
=
*>B
4r
=141
2.r
=142
2.r
=143
2.r
=144
2.r
=145
2.r
=146
2.r
=147
2.r
=148
2.r
=149
2.r
=150
2.r
=151
2.r
=152
2.r
=153
2.r
=154
2.r
=155
2.r
=156
2.gg\
=157
2ddd\
8eee\L
8fff#\J
=158
4ggg\
8r
8ddd\L
8eee\
8fff#\J
=159
4ggg\
8r
8ddd\L
8eee\
8fff#\J
=160
4ggg\
4r
=
*>
4ggg\
4r
4r
=162
2.r
=163
2.r
=164
2.r
=165
2.r
=166
2.r
=167
2.r
=168
2.r
=169
2.r
=170
2.r
=171
2.r
=172
2.r
=173
2.r
=174
2.r
=175
2.r
=176
2.r
=177
2.r
=178
2.r
=179
2.r
=180
2.r
=181
2.r
=182
4r
4r
4ccc\
=183
8bb\L
8ccc\
8ddd\
8gg\
8aa\
8bb\J
=184
8ccc\L
8bb\
8ccc\
8ddd\
8eee\
8fff\J
=185
2gggz\
4fff'\
=186
4eee'\
4ccc'\
4eee'\
=187
2gggz\
4fff\
=188
4eee\
4ccc\
4eee\
=189
2gggz\
4fff\
=190
4eee\
4ccc\
4fff\
=191
4ddd\
4bb\
4eee\
=192
4ccc\
4aa\
4ddd\
=193
4bb\
4gg\
4ddd\
=194
4bb\
4ggg\
4bb\
=195
4ccc\
8r
8gg\L
8aa\
8bb\J
=196
4ccc\
8r
8gg\L
8aa\
8bb\J
=197
4ccc\
4r
4r
=198
2.r
=199
2.r
=200
2.r
=201
2.r
=202
2.r
=203
2.r
=204
2.r
=205
2.r
=206
2.r
=207
2.r
=208
2.r
=209
2.r
=210
2.r
=211
2.r
=212
2.r
=213
2.r
=214
2.r
=215
2.r
=216
2.r
=217
2.r
=218
4r
4r
(4ccc\
=219
8bb\L
8ccc\
8ddd\
8gg\
8aa\
8bb\J
=220
8ccc\L
8bb\
8ccc\
8ddd\
8eee\
8fff\J)
=221
(2ggg\
4fff\
=222
4eee\
4ccc\
4eee\)
=223
(2ggg\
4fff\
=224
4eee\
4ccc\
4eee\)
=225
(2ggg\
4fff\
=226
4ddd\
4bb\
4gg\
=227
4ff\)
4r
4r
=228
2.r
=229
2.r
=230
2.r
=231
2.r
=232
2.r
=233
2.r
=234
2.r
=235
2.r
=236
2.r
==
*k[b-e-a-]
2.r
=238
2.r
=239
2.r
=240
2.r
=241
2.r
=242
2.r
=243
2r
4r
=244
2r
4r
=245
4r
4r
4r
=246
2.r
=247
2.r
=248
2.r
=249
2.r
=250
2.r
=251
2.r
=252
2.r
=253
2r
4r
=254
2r
4r
=255
2r
4r
=256
2.r
=257
2.r
=258
2.r
=259
2.r
=260
2.r
=261
2.r
=262
2.r
=263
2.r
=264
2.r
=265
2.r
=266
2.r
=267
2.r
=268
2.r
=269
2.r
=270
2.r
=271
2.r
=272
2.r
=273
2.r
=274
2.r
=275
2.r
=276
2.r
=277
2.r
=278
2.r
=279
2.r
=280
2.r
=281
2.r
=282
2.r
=283
2.r
=284
2.r
=285
2.r
=286
2.r
=287
2.r
=288
2.r
=289
2.r
=290
2.r
=291
2.r
=292
2.r
=293
2.r
=294
2.r
=295
2.r
=296
2.r
=297
2.r
=298
2.r
=299
2.r
=300
2.r
=301
2.r
=302
2.r
=303
2.r
=304
2.r
=305
2.r
=306
2.r
=307
2.r
=308
2.r
=309
2.r
=310
2.r
=311
2.r
=312
2.r
=313
2.r
=314
2.r
=315
2.r
=316
2.r
=317
2.r
=318
2.r
=319
2.r
=320
2.r
=321
2.r
=322
2.r
=323
2.r
=324
2.r
=325
2.r
=326
2.r
=327
2.r
=328
2.r
=329
2.r
=330
2.r
=331
2.r
=332
2.r
=333
2.r
=334
2.r
=335
2.r
=336
2.r
=337
2.r
=338
2.r
=339
2.r
=340
2.r
=341
2.r
=342
2.r
=343
2.r
=344
2.r
=345
2.r
=346
2.r
=347
2.r
=348
2.r
=349
2.r
=350
2.r
=351
2.r
=352
2.r
=353
2.r
=354
2.r
=355
2.r
=356
2.r
=357
2.r
=358
2.r
=359
2.r
=360
2.r
=361
2.r
=362
2.r
=363
2.r
=364
2.r
=365
2.r
=366
2.r
=367
2.r
=368
2.r
=369
2.r
=370
2.r
=371
[2.ddd\
=372
2.ddd_\
=373
2.ddd_\
=374
2.ddd\
==
*-
*>[A,B,B,C]
